icons/desktop/16/svg/share-winos-16.svg

<svg width="16" height="17" viewBox="0 0 16 17" fill="none" xmlns="http://www.w3.org/2000/svg">
<path d="M7 3.75005C5.39691 3.75005 3.91858 3.84903 2.58594 4.00298C1.97247 4.07415 1.50006 4.60601 1.5 5.24419V13.253C1.5 13.8876 1.97988 14.4266 2.60938 14.4991C4.21967 14.6844 5.69621 14.75 7 14.75C8.60309 14.75 10.0814 14.6511 11.4141 14.4971C12.0276 14.4259 12.5 13.8941 12.5 13.2559V10.25H14V13.2559C14 14.6356 12.9763 15.8264 11.5859 15.9874C10.2006 16.1474 8.66484 16.25 7 16.25C5.64586 16.25 4.11208 16.1819 2.43848 15.9893C1.05012 15.8297 0 14.6483 0 13.253V5.24419C6.03823e-05 3.86458 1.02375 2.6737 2.41406 2.51274C3.79937 2.35271 5.33516 2.25005 7 2.25005V3.75005Z" fill="black"/>
<path d="M12.5 2.47173C12.5004 2.0522 13.0078 1.84238 13.3037 2.13872L15.832 4.66704C16.016 4.85102 16.016 5.14905 15.832 5.33306L13.3037 7.86138C13.0067 8.15794 12.4992 7.94811 12.499 7.52837V5.75005H10.75C9.50904 5.75005 8.50007 6.76011 8.5 8.00005V11C8.5 11.414 8.164 11.75 7.75 11.75C7.336 11.75 7 11.414 7 11V8.00005C7.00007 5.93311 8.68204 4.25005 10.75 4.25005H12.5V2.47173Z" fill="black"/>
</svg>

<!-- This Source Code Form is subject to the terms of the Mozilla Public
   - License, v. 2.0. If a copy of the MPL was not distributed with this
   - file, You can obtain one at http://mozilla.org/MPL/2.0/. -->
<svg xmlns="http://www.w3.org/2000/svg" width="16" height="17" fill="context-fill" fill-opacity="context-fill-opacity" viewBox="0 0 16 17">
    <path d="M7 3.75c-1.603 0-3.081.099-4.414.253A1.24 1.24 0 0 0 1.5 5.244v8.009c0 .635.48 1.174 1.11 1.246a38.4 38.4 0 0 0 8.804-.002 1.24 1.24 0 0 0 1.086-1.241V10.25H14v3.006c0 1.38-1.024 2.57-2.414 2.731a40 40 0 0 1-9.148.002A2.76 2.76 0 0 1 0 13.253V5.244c0-1.38 1.024-2.57 2.414-2.731A40 40 0 0 1 7 2.25z" />
    <path d="M12.5 2.472c0-.42.508-.63.804-.333l2.528 2.528a.47.47 0 0 1 0 .666l-2.528 2.528a.471.471 0 0 1-.805-.333V5.75H10.75A2.253 2.253 0 0 0 8.5 8v3A.75.75 0 0 1 7 11V8a3.755 3.755 0 0 1 3.75-3.75h1.75z" />
</svg>
